icons/Spainicons.svg

<svg width="16" height="16" viewBox="0 0 16 16" fill="currentColor" xmlns="http://www.w3.org/2000/svg">
<g clip-path="url(#clip0_4_2332)">
<g clip-path="url(#clip1_4_2332)">
<path d="M1.29122 14.6429C1.24631 14.6429 1.2014 14.6252 1.1621 14.5955L0.656836 14.1807C0.561397 14.1096 0.544555 13.9674 0.617538 13.8726C0.69052 13.7778 0.819643 13.76 0.915081 13.8311L1.42034 14.2459C1.51017 14.3229 1.52701 14.4592 1.45964 14.56C1.41473 14.6133 1.35298 14.6429 1.29122 14.6429Z" fill="#3D3D3D"/>
<path d="M5.06946 15.3541C5.01332 15.3541 4.95718 15.3304 4.91227 15.283C4.83368 15.1941 4.83929 15.0518 4.92911 14.9689L5.49052 14.4355C5.57473 14.3526 5.70946 14.3585 5.78806 14.4533C5.86666 14.5422 5.86104 14.6844 5.77122 14.7674L5.20982 15.3007C5.17052 15.3363 5.11999 15.3541 5.06946 15.3541Z" fill="#3D3D3D"/>
<path d="M6.19228 14.2281C6.13614 14.2281 6.07439 14.2044 6.03509 14.1511C5.95649 14.0563 5.96772 13.92 6.05754 13.837L6.50667 13.4222C6.59649 13.3393 6.72561 13.3511 6.80421 13.4459C6.88281 13.5407 6.87158 13.677 6.78176 13.76L6.33263 14.1748C6.29333 14.2104 6.24281 14.2281 6.19228 14.2281Z" fill="#3D3D3D"/>
<path d="M15.4667 6.28738C15.4161 6.28738 15.3656 6.26961 15.3263 6.23405L14.8772 5.81924C14.7874 5.73627 14.7817 5.59998 14.8547 5.50516C14.9333 5.41627 15.0624 5.40442 15.1523 5.48146L15.6014 5.89627C15.6912 5.97924 15.6968 6.11553 15.6238 6.21035C15.5789 6.26368 15.5228 6.28738 15.4667 6.28738Z" fill="#3D3D3D"/>
<path d="M13.0021 9.3985C12.9403 9.3985 12.873 9.36887 12.8337 9.30961C12.7663 9.20887 12.7831 9.07257 12.8786 9.00146L13.3277 8.64591C13.4231 8.57479 13.5523 8.59257 13.6196 8.69331C13.687 8.79405 13.6702 8.93035 13.5747 9.00146L13.1256 9.35702C13.0919 9.38665 13.047 9.3985 13.0021 9.3985Z" fill="#3D3D3D"/>
<path d="M13.513 10.2518C13.4512 10.2518 13.4007 10.2281 13.3614 10.1866C13.3446 10.1629 13.3277 10.1392 13.3165 10.1096C13.3053 10.0859 13.2997 10.0563 13.2997 10.0266C13.2997 9.96739 13.3221 9.91405 13.3614 9.87257C13.4175 9.80739 13.513 9.78961 13.5916 9.82516C13.614 9.83109 13.6421 9.84887 13.659 9.87257C13.6982 9.91405 13.7207 9.96739 13.7207 10.0266C13.7207 10.0563 13.7151 10.0859 13.7039 10.1096C13.6926 10.1392 13.6814 10.1629 13.659 10.1866C13.6421 10.2044 13.614 10.2222 13.5916 10.2341C13.5635 10.2459 13.5411 10.2518 13.513 10.2518Z" fill="#3D3D3D"/>
<path d="M0.746658 15.8637C0.684904 15.8637 0.634378 15.84 0.595079 15.7985C0.578237 15.7807 0.561395 15.757 0.550167 15.7274C0.538939 15.7037 0.533325 15.674 0.533325 15.6444C0.533325 15.5852 0.555781 15.5259 0.595079 15.4844C0.656834 15.4252 0.746659 15.4015 0.825255 15.437C0.853325 15.4489 0.875781 15.4666 0.892624 15.4844C0.931922 15.5259 0.954378 15.5852 0.954378 15.6444C0.954378 15.674 0.948764 15.7037 0.937536 15.7274C0.926308 15.757 0.91508 15.7807 0.892624 15.7985C0.853325 15.84 0.802799 15.8637 0.746658 15.8637Z" fill="#3D3D3D"/>
<path d="M1.89192 15.3955C1.83017 15.3955 1.77964 15.3778 1.74034 15.3304C1.70104 15.2889 1.67859 15.2355 1.67859 15.1763C1.67859 15.117 1.70104 15.0578 1.74034 15.0222C1.79648 14.957 1.89192 14.9333 1.97052 14.9689C1.99297 14.9807 2.01543 14.9985 2.03789 15.0222C2.07719 15.0578 2.09964 15.117 2.09964 15.1763C2.09964 15.2059 2.09403 15.2355 2.0828 15.2592C2.07157 15.2889 2.06034 15.3126 2.03789 15.3304C2.01543 15.3541 1.99297 15.3718 1.97052 15.3837C1.94245 15.3896 1.91999 15.3955 1.89192 15.3955Z" fill="#3D3D3D"/>
<path d="M3.12139 14.8918C2.99227 14.9985 3.09894 15.3007 3.12139 15.36C3.18315 15.4311 3.57052 15.5733 3.6828 15.5318C3.7221 15.5022 3.77824 15.2948 3.80631 15.1941C3.83999 15.0696 3.87367 14.9511 3.9242 14.8563C3.95227 14.8089 3.98595 14.7615 4.01403 14.7141C3.76139 14.7378 3.23367 14.8326 3.12139 14.8918ZM3.6435 15.9822C3.31227 15.9822 2.82385 15.7807 2.72841 15.5259C2.55999 15.0874 2.61613 14.72 2.87999 14.5244C3.05403 14.3941 4.12069 14.1867 4.35648 14.3407C4.45753 14.4059 4.49122 14.4948 4.50245 14.5541C4.53052 14.7141 4.44631 14.8504 4.35648 14.9748C4.33402 15.0104 4.30595 15.0518 4.2835 15.0874C4.26104 15.1289 4.23297 15.2296 4.21052 15.3185C4.14315 15.5674 4.06455 15.8696 3.81753 15.9585C3.76701 15.9763 3.71087 15.9822 3.6435 15.9822Z" fill="#3D3D3D"/>
<path d="M13.3165 7.23554C13.3277 7.51998 13.7039 7.91702 13.8274 7.94072C13.9565 7.91702 14.3775 7.4785 14.4337 7.3422C14.4393 7.24146 14.3326 6.82665 14.2484 6.76739C14.0968 6.77332 13.44 7.07554 13.3165 7.23554ZM13.8218 8.37924C13.6028 8.37924 13.3782 8.16591 13.266 8.04146C13.1761 7.9348 12.873 7.56739 12.8954 7.17628C12.9235 6.73776 14.0351 6.32887 14.2709 6.32887C14.3551 6.32887 14.4786 6.3585 14.5909 6.50665C14.7818 6.75554 14.8772 7.26517 14.8379 7.44887C14.7874 7.69183 14.1642 8.37924 13.8218 8.37924Z" fill="#3D3D3D"/>
<path d="M5.42315 13.2148C5.39508 13.2148 5.3614 13.2089 5.33333 13.203C5.06385 13.1437 4.69894 12.8178 4.2835 12.4267C4.17684 12.3259 4.0421 12.2015 4.0028 12.1778C3.98596 12.1719 3.86245 12.1659 3.76701 12.1541C3.31789 12.1185 2.56561 12.0533 2.40842 11.4844C2.26807 10.957 2.57684 10.5067 2.7621 10.2341C2.8014 10.1748 2.85754 10.0978 2.86315 10.0681C2.89122 9.96741 2.83508 9.52296 2.80701 9.29185C2.79017 9.16741 2.77333 9.04296 2.76771 8.94222C2.72842 8.91259 2.64982 8.87704 2.60491 8.85333C2.46456 8.78815 2.34666 8.72889 2.29614 8.59852C2.26807 8.52148 2.27929 8.4563 2.30175 8.36741C2.34666 8.17185 2.34105 8.10074 2.32982 8.07704C2.27929 8.00592 2.22315 7.97629 2.1614 7.93481C1.98736 7.82815 1.83017 7.7037 1.70666 7.30074C1.67859 7.21185 1.68982 7.11704 1.74596 7.04C1.86385 6.86222 2.1221 6.8563 2.57122 6.85037C2.67789 6.85037 2.82947 6.85037 2.91368 6.83852C3.04842 6.40592 3.26175 4.43259 3.18315 3.98815C2.86315 3.92296 2.66666 3.84592 2.55999 3.67407C2.4814 3.54963 2.47578 3.40741 2.49824 3.28296C2.30175 3.24741 1.80771 3.28889 1.55508 3.31259C1.04421 3.36 0.858942 3.37185 0.741048 3.28296C0.572627 3.15259 0.516486 2.87407 0.460346 2.5837C0.43789 2.47704 0.421048 2.37037 0.392978 2.29926C0.280697 1.99111 0.454732 1.17333 0.712978 1.03704C0.864557 0.954073 1.0835 0.948147 1.29122 0.942221C1.37543 0.942221 1.48771 0.936295 1.54947 0.924443C1.57192 0.882962 1.6 0.805925 1.61684 0.740739C1.72912 0.438517 1.85263 0.0948133 2.11649 0.04148C2.59368 -0.0592608 3.30105 0.266666 3.55929 0.527407C3.84561 0.675555 6.35508 0.574813 7.42736 0.533332C7.87649 0.515554 8.21894 0.503702 8.35929 0.503702C8.43789 0.503702 8.5221 0.503703 8.61192 0.497777C9.15087 0.479999 10.0491 0.450369 10.2512 1.43407C10.3298 1.46963 10.5207 1.49926 10.6835 1.50518C10.8014 1.51111 10.8912 1.61185 10.8912 1.73037C10.8856 1.85481 10.8014 1.95555 10.6779 1.94963C10.1726 1.93778 9.89192 1.80741 9.85263 1.57037C9.74596 0.954073 9.29684 0.924444 8.62877 0.942221C8.53333 0.948147 8.4435 0.948147 8.35929 0.948147C8.22456 0.954073 7.8821 0.959999 7.44982 0.977776C4.46877 1.09629 3.49192 1.06667 3.27859 0.847406C3.08771 0.657777 2.51508 0.414813 2.2007 0.474073C2.15578 0.509628 2.05473 0.782221 2.01543 0.900739C1.94807 1.07852 1.90877 1.18518 1.84701 1.25037C1.73473 1.36889 1.55508 1.37481 1.30245 1.38074C1.16771 1.38667 0.971223 1.38667 0.898241 1.42815C0.853328 1.50518 0.741048 2.00889 0.78596 2.13333C0.819644 2.22222 0.847714 2.35259 0.87017 2.48296C0.892627 2.60148 0.937539 2.81481 0.982451 2.89778C1.0835 2.9037 1.33052 2.88 1.5214 2.86222C2.30736 2.79111 2.68912 2.77926 2.86315 2.98667C2.93052 3.06963 2.95298 3.17037 2.93052 3.27704C2.90245 3.39555 2.91929 3.42518 2.91929 3.42518C2.93614 3.44889 3.00912 3.50222 3.35719 3.56741C3.43578 3.57926 3.53684 3.63852 3.58175 3.8163C3.71087 4.29037 3.46385 6.94518 3.21122 7.18222C3.10456 7.28296 2.93052 7.28889 2.58245 7.29481C2.47017 7.29481 2.29052 7.29481 2.17263 7.31259C2.23999 7.46074 2.30175 7.50222 2.39157 7.55555C2.47578 7.60296 2.57684 7.66815 2.67789 7.79852C2.82385 7.98815 2.78456 8.24889 2.74526 8.42074C2.7621 8.43259 2.78456 8.43852 2.8014 8.45037C2.97543 8.53333 3.18877 8.63407 3.20561 8.85926C3.21684 8.96 3.23368 9.09037 3.25052 9.23259C3.31228 9.72444 3.35157 10.0385 3.28982 10.2163C3.26175 10.2993 3.20561 10.3822 3.13263 10.4948C2.97543 10.7259 2.75649 11.0459 2.8407 11.3659C2.91368 11.6385 3.50877 11.6859 3.82877 11.7156C4.04771 11.7333 4.15438 11.7452 4.23298 11.7926C4.30596 11.8341 4.40701 11.923 4.59228 12.0948C4.82807 12.3141 5.27157 12.7289 5.45684 12.7704C5.55228 12.7407 5.7207 12.3319 5.77684 12.2015C5.87228 11.9822 5.91719 11.8756 6.01824 11.8222C6.07999 11.7867 6.15298 11.7511 7.55649 11.7215H7.6407C7.68561 11.7215 7.76421 11.7333 7.86526 11.7452C8.08421 11.7748 8.4435 11.8341 8.68491 11.7511C8.81964 11.7037 8.94877 11.283 9.03859 11.0044C9.15087 10.6489 9.25754 10.317 9.45403 10.157C9.66736 9.98518 10.0379 9.98518 10.3972 9.98518C10.5375 9.98518 10.7284 9.98518 10.8295 9.96741C10.8239 9.93185 10.8182 9.88444 10.8126 9.84889C10.7621 9.49926 10.661 8.84148 11.3572 8.43259L11.4526 8.37333C11.9803 8.06518 12.0365 7.95259 12.0253 7.91111C11.9972 7.83407 11.8288 7.64444 11.7053 7.50815C11.3796 7.14667 11.0428 6.77926 11.1888 6.42963C11.4807 5.72444 11.9186 4.85333 12.3172 4.72889C12.5979 4.64 12.6484 4.49778 12.7158 4.29629C12.7719 4.13629 12.8337 3.93481 13.0414 3.82815L13.2323 3.72741C14.6863 2.95704 15.0624 2.65481 15.1186 2.5363C15.2589 2.24 15.2814 1.83111 15.2365 1.74222C15.1242 1.71259 14.1417 1.64148 13.861 1.68889C13.7824 1.70074 13.687 1.70667 13.5803 1.70667C13.221 1.71259 13.047 1.74222 13.0246 1.89629C13.0077 2.00889 12.9572 2.1037 12.873 2.16889C12.6709 2.32296 12.3621 2.2637 12.1151 2.22222L11.9972 2.20444C11.8793 2.18667 11.8007 2.07407 11.8175 1.95555C11.8344 1.83704 11.9354 1.74815 12.0533 1.76592C12.0926 1.77185 12.1375 1.77778 12.1881 1.78963C12.2891 1.80741 12.5586 1.85481 12.626 1.81926C12.6821 1.29185 13.2379 1.28 13.5747 1.27407C13.6589 1.27407 13.7375 1.27407 13.7993 1.26222C14.1193 1.20889 15.2028 1.26815 15.4386 1.37481C15.5003 1.40444 15.5846 1.4637 15.6351 1.60592C15.7417 1.90815 15.6463 2.42963 15.4947 2.7437C15.3432 3.0637 14.5853 3.51407 13.4175 4.13037L13.2267 4.23111C13.1761 4.26074 13.1481 4.32 13.1032 4.45629C13.0302 4.68148 12.9179 5.01333 12.4239 5.16741C12.2779 5.20889 11.9298 5.7363 11.5649 6.61926C11.5593 6.72592 11.8568 7.05185 11.9972 7.21185C12.1881 7.41926 12.3509 7.60296 12.407 7.76889C12.5698 8.23704 12.014 8.55704 11.6435 8.77037L11.5537 8.8237C11.1495 9.06667 11.1607 9.38667 11.2225 9.7837C11.2393 9.90815 11.2561 10.0207 11.2393 10.1215C11.1775 10.4356 10.8126 10.4356 10.3916 10.4356C10.1558 10.4356 9.8021 10.4356 9.70105 10.5185C9.61122 10.5896 9.51017 10.9156 9.43719 11.1467C9.29684 11.597 9.15087 12.0593 8.81964 12.1778C8.48842 12.2963 8.06175 12.2311 7.80912 12.1956C7.74175 12.1837 7.67999 12.1719 7.65192 12.1778H7.5621C6.67508 12.1956 6.34385 12.2193 6.22596 12.237C6.2035 12.2785 6.17543 12.3496 6.15298 12.397C5.98456 12.717 5.77122 13.2148 5.42315 13.2148Z" fill="#3D3D3D"/>
</g>
</g>
<defs>
<clipPath id="clip0_4_2332">
<rect width="16" height="16" fill="white"/>
</clipPath>
<clipPath id="clip1_4_2332">
<rect width="16" height="16" fill="white"/>
</clipPath>
</defs>
</svg>

<svg xmlns="http://www.w3.org/2000/svg" width="16" height="16" fill="currentColor" class="si si-Spainicons" viewBox="0 0 16 16">
  <g clip-path="url(#a)">
    <g clip-path="url(#b)">
      <path d="M1.291 14.643a.22.22 0 0 1-.129-.048l-.505-.414a.22.22 0 0 1-.04-.308.21.21 0 0 1 .298-.042l.505.415a.24.24 0 0 1 .04.314.22.22 0 0 1-.169.083m3.779.711a.22.22 0 0 1-.158-.071.227.227 0 0 1 .017-.314l.562-.534a.2.2 0 0 1 .297.018.227.227 0 0 1-.017.314l-.561.534a.2.2 0 0 1-.14.053m1.122-1.126a.2.2 0 0 1-.157-.077.227.227 0 0 1 .023-.314l.449-.415a.2.2 0 0 1 .297.024.227.227 0 0 1-.022.314l-.45.415a.2.2 0 0 1-.14.053m9.275-7.941a.2.2 0 0 1-.14-.053l-.45-.415a.233.233 0 0 1-.022-.314.21.21 0 0 1 .297-.024l.45.415c.09.083.095.22.022.314a.2.2 0 0 1-.157.077m-2.465 3.112a.2.2 0 0 1-.168-.09.226.226 0 0 1 .045-.308l.449-.355a.2.2 0 0 1 .292.047.227.227 0 0 1-.045.308l-.45.356a.2.2 0 0 1-.123.042m.511.853a.2.2 0 0 1-.152-.065q-.026-.035-.045-.077a.22.22 0 0 1 .045-.237.2.2 0 0 1 .23-.048.13.13 0 0 1 .068.048.22.22 0 0 1 .045.237.2.2 0 0 1-.045.077.3.3 0 0 1-.067.047.2.2 0 0 1-.079.018M.747 15.864a.2.2 0 0 1-.152-.066.2.2 0 0 1-.045-.07.2.2 0 0 1-.017-.084c0-.059.023-.118.062-.16a.21.21 0 0 1 .23-.047q.042.02.068.047a.24.24 0 0 1 .061.16q0 .047-.016.083a.15.15 0 0 1-.045.072.2.2 0 0 1-.146.065m1.145-.468a.18.18 0 0 1-.152-.066.22.22 0 0 1-.061-.154c0-.059.022-.118.061-.154a.2.2 0 0 1 .23-.053q.034.018.068.053a.2.2 0 0 1 .062.154q0 .047-.017.083a.15.15 0 0 1-.045.071.3.3 0 0 1-.067.054c-.029.006-.051.011-.08.011m1.23-.503c-.129.107-.022.409 0 .468.062.071.45.213.562.172.04-.03.095-.237.123-.338.034-.124.068-.243.118-.338.028-.047.062-.095.09-.142-.253.024-.78.119-.893.178m.523 1.09c-.332 0-.82-.201-.916-.456-.168-.439-.112-.806.152-1.002.174-.13 1.24-.337 1.476-.183a.32.32 0 0 1 .146.213c.029.16-.056.296-.146.42l-.072.113a1.3 1.3 0 0 0-.073.232c-.068.248-.146.55-.393.64a.5.5 0 0 1-.175.023m9.674-8.746c.01.284.387.681.51.705.13-.024.55-.462.607-.599.005-.1-.101-.515-.186-.575-.151.006-.808.309-.931.469m.505 1.143c-.22 0-.444-.213-.556-.338-.09-.106-.393-.474-.37-.865.027-.438 1.14-.847 1.375-.847.084 0 .208.03.32.178.19.249.286.758.247.942-.05.243-.674.93-1.016.93"/>
      <path d="M5.423 13.215a.5.5 0 0 1-.09-.012c-.27-.06-.634-.385-1.05-.776a4 4 0 0 0-.28-.25c-.017-.005-.14-.011-.236-.023-.45-.036-1.201-.1-1.359-.67-.14-.527.169-.977.354-1.25.04-.06.096-.136.101-.166.028-.1-.028-.545-.056-.776a5 5 0 0 1-.04-.35c-.039-.03-.117-.065-.162-.089-.14-.065-.258-.124-.309-.254-.028-.078-.017-.143.006-.232.045-.195.04-.266.028-.29-.05-.071-.107-.1-.169-.142-.174-.107-.33-.231-.454-.634a.29.29 0 0 1 .039-.261c.118-.178.376-.184.825-.19.107 0 .258 0 .343-.011.134-.433.348-2.406.27-2.85-.32-.066-.517-.143-.624-.315a.54.54 0 0 1-.062-.391c-.196-.036-.69.006-.943.03-.51.047-.696.059-.814-.03-.168-.13-.225-.409-.28-.7C.437 2.478.42 2.37.392 2.3c-.112-.308.062-1.126.32-1.262.152-.083.37-.089.578-.095.084 0 .197-.006.258-.018a1 1 0 0 0 .068-.183c.112-.302.236-.646.5-.7.477-.1 1.184.226 1.442.486.287.149 2.796.048 3.868.006.45-.017.792-.03.932-.03q.118.001.253-.005c.539-.018 1.437-.048 1.64.936.078.036.269.065.431.071a.22.22 0 0 1 .208.225c-.005.125-.09.226-.213.22-.505-.012-.786-.143-.825-.38C9.746.954 9.297.924 8.629.942q-.143.007-.27.006c-.134.006-.477.012-.91.03-2.98.118-3.957.089-4.17-.13C3.088.657 2.515.414 2.2.473c-.045.036-.146.308-.186.427-.067.178-.106.284-.168.35-.112.118-.292.124-.545.13-.134.006-.33.006-.404.047-.045.077-.157.58-.112.705.034.09.062.22.084.35.023.118.068.332.112.415.101.006.349-.018.54-.036.785-.07 1.167-.083 1.341.125.068.083.09.183.068.29-.029.119-.012.148-.012.148.017.024.09.077.438.142.079.012.18.072.225.25.129.473-.118 3.128-.37 3.365-.107.101-.281.107-.63.113-.112 0-.291 0-.41.018.068.148.13.19.22.243a.9.9 0 0 1 .286.243c.146.19.107.45.067.622.017.012.04.018.056.03.174.082.388.183.405.408.01.101.028.231.045.374.061.491.1.806.039.983-.028.083-.084.166-.157.279-.158.23-.377.55-.292.87.073.274.668.32.988.35.219.018.325.03.404.078.073.041.174.13.36.302.235.22.679.634.864.675.095-.03.264-.438.32-.569.095-.219.14-.325.241-.379.062-.035.135-.07 1.538-.1h.085c.045 0 .123.011.224.023.22.03.579.09.82.006.135-.047.264-.468.354-.747.112-.355.219-.687.415-.847.213-.172.584-.172.943-.172.14 0 .331 0 .432-.018-.005-.035-.01-.083-.016-.118-.05-.35-.152-1.008.544-1.416l.096-.06c.527-.308.584-.42.572-.462-.028-.077-.196-.267-.32-.403-.325-.361-.662-.729-.516-1.078.292-.706.73-1.577 1.128-1.701.28-.089.331-.231.399-.433.056-.16.118-.361.325-.468l.191-.1c1.454-.771 1.83-1.073 1.887-1.192.14-.296.162-.705.117-.794-.112-.03-1.094-.1-1.375-.053a2 2 0 0 1-.28.018c-.36.006-.534.035-.556.19a.4.4 0 0 1-.152.272c-.202.154-.51.095-.758.053l-.118-.018a.22.22 0 0 1-.18-.248c.017-.119.118-.208.236-.19q.06.008.135.024c.101.017.37.065.438.03.056-.528.612-.54.949-.546.084 0 .163 0 .224-.012.32-.053 1.404.006 1.64.113.061.03.146.089.196.23.107.303.011.825-.14 1.139-.152.32-.91.77-2.077 1.386l-.191.101c-.05.03-.079.089-.124.225-.073.225-.185.557-.68.711-.145.042-.493.57-.858 1.452-.006.107.292.433.432.593.191.207.354.391.41.557.163.468-.393.788-.764 1.001l-.09.054c-.404.243-.392.563-.33.96.016.124.033.237.016.337-.062.315-.426.315-.847.315-.236 0-.59 0-.69.082-.09.072-.192.398-.265.629-.14.45-.286.912-.617 1.03-.332.12-.758.054-1.01.019-.068-.012-.13-.024-.158-.018h-.09c-.887.018-1.218.041-1.336.059-.022.041-.05.113-.073.16-.168.32-.382.818-.73.818"/>
    </g>
  </g>
  <defs>
    <clipPath id="a">
      <path d="M0 0h16v16H0z"/>
    </clipPath>
    <clipPath id="b">
      <path d="M0 0h16v16H0z"/>
    </clipPath>
  </defs>
</svg>
